X: 13548
T: Flowing Tide, The
R: hornpipe
M: 4/4
K: Amajor
|:A2 A>c e>Ac>e|a>ce>a (3c’d'c' b>a|f>ae>a c>ea>f|e>cB>A F>AE>C|
A,2 A>c e>Ac>e|a>ce>a (3c’d'c' b>a|f>ae>a c>ef>e|c>eB>e A4:|
|:A2 A>c B>AF>A|a>ga>f e>cB>A|d>fc>e B>dA>c|d>Bc>A B>AF>A|
E>Ac>e a>ce>a|d’>bc’>a b>af>a|e>ac>f e>d’b>g|a2 a2 a4:|

